; generated by Slic3r 1.2.9 on 2016-08-11 at 14:06:19

; external perimeters extrusion width = 0.45mm
; perimeters extrusion width = 0.45mm
; infill extrusion width = 0.60mm
; solid infill extrusion width = 0.50mm
; top infill extrusion width = 0.30mm

M107
;Basic settings: Layer height: {layer_height} Walls: {wall_thickness} Fill: {fill_density}
;Print time: {print_time}
;Filament used: {filament_amount}m {filament_weight}g
;Filament cost: {filament_cost}
G21                          ; metric values
G90                          ; absolute positioning
M82                          ; set extruder to absolute mode
M107                         ; start with the fan off
G92 E0                       ; set extruder position to 0
M140 S110                     ; get bed heating up
G28                               ; home all
M109 S150                     ; set to cleaning temp and wait
G1 Z150 E-30 F75           ; suck up XXmm of filament
M109 S170                     ; heat up rest of way
G1 X45 Y174 F11520       ; move behind scraper
G1 Z0  F1200                  ; CRITICAL: set Z to height of top of scraper
G1 X45 Y174 Z-.5 F4000   ; wiping ; plunge into wipe pad
G1 X55 Y172 Z-.5 F4000       ; wiping
G1 X45 Y174 Z0 F4000         ; wiping
G1 X55 Y172 F4000            ; wiping
G1 X45 Y174 F4000            ; wiping
G1 X55 Y172 F4000            ; wiping
G1 X45 Y174 F4000            ; wiping
G1 X55 Y172 F4000            ; wiping
G1 X60 Y174 F4000            ; wiping
G1 X80 Y172 F4000            ; wiping
G1 X60 Y174 F4000            ; wiping
G1 X80 Y172 F4000            ; wiping
G1 X60 Y174 F4000            ; wiping
G1 X90 Y172 F4000            ; wiping
G1 X80 Y174 F4000            ; wiping
G1 X100 Y172 F4000           ; wiping
G1 X80 Y174 F4000            ; wiping
G1 X100 Y172 F4000           ; wiping
G1 X80 Y174 F4000            ; wiping
G1 X100 Y172 F4000           ; wiping
G1 X110 Y174 F4000           ; wiping
G1 X100 Y172 F4000           ; wiping
G1 X110 Y174 F4000           ; wiping
G1 X100 Y172 F4000           ; wiping
G1 X110 Y174 F4000           ; wiping
G1 X115 Y172 Z-0.5 F1000     ; wipe slower and bury noz in cleanish area
G1 Z10                       ; raise z
G28 X0 Y0                    ; home x and y
M109 S170                    ; set to probing temp
M204 S300                    ; set accel for probing
G29                          ; Probe
M204 S2000                   ; set accel back to normal
G1 X5 Y15 Z10 F5000          ; get out the way
M400                         ; clear buffer
G4 S1                        ; pause
M109 S240    ; set extruder temp and wait
G4 S25                       ; wait for bed to temp up
G1 Z2 E0 F75                 ; extrude filament back into nozzle
M140 S110; get bed temping up during first layer
G21 ; set units to millimeters
G90 ; use absolute coordinates
M82 ; use absolute distances for extrusion
G92 E0
G1 E-1.00000 F600.00000
G92 E0
G1 Z0.200 F10500.000
G1 Z0.300 F10500.000
G1 Z0.500 F10500.000
G1 X52.467 Y37.356 F10500.000
G1 Z0.300 F10500.000
G1 E1.00000 F600.00000
M204 S500
G1 X53.179 Y36.359 E1.01563 F1080.000
G1 X54.187 Y35.023 E1.03698
G1 X67.209 Y18.120 E1.30914
G1 X68.198 Y17.195 E1.32642
G1 X69.090 Y16.599 E1.34011
G1 X70.598 Y15.974 E1.36092
G1 X71.650 Y15.765 E1.37461
G1 X73.282 Y15.765 E1.39542
G1 X74.440 Y15.997 E1.41048 F1080.000
G1 X82.637 Y17.848 E1.51768
G1 X83.505 Y18.147 E1.52939
G1 X99.690 Y25.805 E1.75778
G1 X100.225 Y26.108 E1.76562
G1 X101.118 Y26.705 E1.77932
G1 X102.272 Y27.859 E1.80013
G1 X102.869 Y28.752 E1.81384
G1 X103.390 Y29.850 E1.82934
G1 X114.171 Y65.014 E2.29848
G1 X114.275 Y65.424 E2.30387
G1 X114.484 Y66.475 E2.31753
G1 X114.559 Y67.494 E2.33057
G1 X111.717 Y125.816 E3.07536
G1 X111.620 Y127.040 E3.09102
G1 X111.539 Y127.621 E3.09852
G1 X111.385 Y128.454 E3.10931
G1 X111.282 Y128.903 E3.11520
G1 X111.069 Y129.616 E3.12469
G1 X110.727 Y130.528 E3.13711
G1 X110.560 Y130.890 E3.14220
G1 X110.290 Y131.385 E3.14939
G1 X109.998 Y131.872 E3.15663
G1 X109.705 Y132.300 E3.16325
G1 X109.256 Y132.841 E3.17222
G1 X108.996 Y133.121 E3.17709
G1 X108.530 Y133.547 E3.18514
G1 X108.011 Y133.956 E3.19358
G1 X107.669 Y134.197 E3.19891
G1 X107.320 Y134.410 E3.20412
G1 X106.640 Y134.774 E3.21396
G1 X105.775 Y135.141 E3.22595
G1 X105.018 Y135.404 E3.23616
G1 X103.659 Y135.798 E3.25422
G1 X102.306 Y136.129 E3.27198
G1 X101.043 Y136.360 E3.28836
G1 X100.491 Y136.429 E3.29546
G1 X99.368 Y136.511 E3.30982
G1 X54.798 Y136.511 E3.87833
G1 X53.341 Y136.393 E3.89696
G1 X51.693 Y136.093 E3.91833
G1 X50.453 Y135.784 E3.93463
G1 X49.147 Y135.404 E3.95198
G1 X48.390 Y135.141 E3.96220
G1 X47.525 Y134.774 E3.97419
G1 X46.845 Y134.410 E3.98402
G1 X46.496 Y134.197 E3.98924
G1 X45.769 Y133.654 E4.00082
G1 X45.314 Y133.260 E4.00850
G1 X44.909 Y132.842 E4.01592
G1 X44.461 Y132.300 E4.02490
G1 X44.167 Y131.872 E4.03151
G1 X43.805 Y131.264 E4.04055
G1 X43.605 Y130.890 E4.04595
G1 X43.296 Y130.176 E4.05587
G1 X43.096 Y129.616 E4.06345
G1 X42.883 Y128.903 E4.07294
G1 X42.713 Y128.116 E4.08322
G1 X42.570 Y127.247 E4.09446
G1 X42.453 Y125.905 E4.11164
G1 X39.440 Y66.336 E4.87243
G1 X39.515 Y65.309 E4.88556
G1 X39.724 Y64.257 E4.89924
G1 X39.982 Y63.425 E4.91036
G1 X47.467 Y45.984 E5.15244
G1 X48.810 Y43.285 E5.19089
G1 X49.908 Y41.330 E5.21950
G1 X50.227 Y40.787 E5.22753
G1 X51.303 Y39.072 E5.25335
G1 X52.423 Y37.418 E5.27884
M204 S2000
G1 X52.708 Y37.528 F10500.000
M204 S500
G1 X53.415 Y36.537 E5.29437 F1080.000
G1 X54.421 Y35.204 E5.31567
G1 X67.443 Y18.300 E5.58784
G1 X68.362 Y17.441 E5.60390
G1 X69.255 Y16.845 E5.61758
G1 X70.656 Y16.264 E5.63693
G1 X71.708 Y16.055 E5.65061
G1 X73.224 Y16.055 E5.66996
G1 X74.374 Y16.285 E5.68492 F1080.000
G1 X82.572 Y18.136 E5.79212
G1 X83.379 Y18.414 E5.80300
G1 X99.564 Y26.073 E6.03139
G1 X100.061 Y26.354 E6.03867
G1 X100.954 Y26.951 E6.05237
G1 X102.026 Y28.023 E6.07172
G1 X102.623 Y28.917 E6.08542
G1 X103.107 Y29.937 E6.09983
G1 X113.889 Y65.101 E6.56897
G1 X113.985 Y65.482 E6.57398
G1 X114.194 Y66.533 E6.58764
G1 X114.264 Y67.480 E6.59976
G1 X111.422 Y125.801 E7.34455
G1 X111.326 Y127.012 E7.36003
G1 X111.141 Y128.171 E7.37501
G1 X110.942 Y129.021 E7.38614
G1 X110.723 Y129.720 E7.39549
G1 X110.453 Y130.417 E7.40502
G1 X110.298 Y130.754 E7.40976
G1 X110.037 Y131.233 E7.41672
G1 X109.745 Y131.720 E7.42396
G1 X109.472 Y132.117 E7.43011
G1 X109.031 Y132.650 E7.43893
G1 X108.789 Y132.910 E7.44345
G1 X108.344 Y133.317 E7.45115
G1 X107.828 Y133.724 E7.45953
G1 X107.511 Y133.948 E7.46448
G1 X107.177 Y134.151 E7.46947
G1 X106.507 Y134.510 E7.47916
G1 X105.664 Y134.867 E7.49084
G1 X104.931 Y135.122 E7.50074
G1 X103.584 Y135.512 E7.51863
G1 X102.249 Y135.840 E7.53616
G1 X100.992 Y136.069 E7.55246
G1 X100.468 Y136.134 E7.55919
G1 X99.352 Y136.216 E7.57347
G1 X54.813 Y136.216 E8.14157
G1 X53.377 Y136.099 E8.15995
G1 X51.762 Y135.806 E8.18089
G1 X50.532 Y135.499 E8.19706
G1 X49.234 Y135.122 E8.21430
G1 X48.501 Y134.867 E8.22420
G1 X47.658 Y134.510 E8.23588
G1 X46.988 Y134.151 E8.24557
G1 X46.654 Y133.948 E8.25056
G1 X45.951 Y133.422 E8.26175
G1 X45.516 Y133.045 E8.26910
G1 X45.135 Y132.650 E8.27610
G1 X44.693 Y132.117 E8.28492
G1 X44.420 Y131.720 E8.29107
G1 X44.063 Y131.120 E8.29998
G1 X43.867 Y130.754 E8.30528
G1 X43.570 Y130.065 E8.31484
G1 X43.379 Y129.530 E8.32209
G1 X43.168 Y128.826 E8.33147
G1 X43.004 Y128.065 E8.34139
G1 X42.862 Y127.204 E8.35253
G1 X42.748 Y125.884 E8.36943
G1 X39.735 Y66.321 E9.13014
G1 X39.805 Y65.367 E9.14235
G1 X40.014 Y64.315 E9.15603
G1 X40.254 Y63.542 E9.16636
G1 X47.732 Y46.116 E9.40823
G1 X49.070 Y43.426 E9.44655
G1 X50.164 Y41.479 E9.47504
G1 X50.477 Y40.943 E9.48295
G1 X51.553 Y39.230 E9.50876
G1 X52.664 Y37.589 E9.53403
M204 S2000
G1 X52.948 Y37.700 F10500.000
M204 S500
G1 X53.651 Y36.715 E9.54946 F1080.000
G1 X54.655 Y35.384 E9.57073
G1 X67.677 Y18.481 E9.84289
G1 X68.527 Y17.687 E9.85773
G1 X69.419 Y17.090 E9.87142
G1 X70.713 Y16.554 E9.88929
G1 X71.766 Y16.345 E9.90297
G1 X73.167 Y16.345 E9.92085
G1 X74.309 Y16.573 E9.93571 F1080.000
G1 X82.507 Y18.424 E10.04291
G1 X83.252 Y18.681 E10.05296
G1 X99.437 Y26.340 E10.28135
G1 X99.896 Y26.600 E10.28808
G1 X100.790 Y27.197 E10.30178
G1 X101.780 Y28.188 E10.31966
G1 X102.377 Y29.081 E10.33336
G1 X102.825 Y30.023 E10.34667
G1 X113.606 Y65.188 E10.81581
G1 X113.695 Y65.540 E10.82044
G1 X113.904 Y66.590 E10.83410
G1 X113.968 Y67.466 E10.84530
G1 X111.126 Y125.787 E11.59009
G1 X111.032 Y126.983 E11.60540
G1 X110.852 Y128.112 E11.61997
G1 X110.659 Y128.934 E11.63075
G1 X110.445 Y129.619 E11.63990
G1 X110.179 Y130.306 E11.64930
G1 X110.035 Y130.617 E11.65367
G1 X109.783 Y131.081 E11.66041
G1 X109.491 Y131.568 E11.66765
G1 X109.239 Y131.935 E11.67333
G1 X108.805 Y132.459 E11.68200
G1 X108.582 Y132.698 E11.68618
G1 X108.158 Y133.087 E11.69351
G1 X107.646 Y133.491 E11.70183
G1 X107.034 Y133.892 E11.71117
G1 X106.374 Y134.246 E11.72072
G1 X105.553 Y134.593 E11.73209
G1 X104.760 Y134.865 E11.74279
G1 X103.509 Y135.226 E11.75939
G1 X102.191 Y135.550 E11.77670
G1 X100.940 Y135.778 E11.79292
G1 X100.446 Y135.840 E11.79928
G1 X99.336 Y135.921 E11.81347
G1 X54.829 Y135.921 E12.38116
G1 X53.413 Y135.806 E12.39929
G1 X51.832 Y135.518 E12.41979
G1 X50.610 Y135.214 E12.43584
G1 X49.322 Y134.839 E12.45296
G1 X48.612 Y134.593 E12.46254
G1 X47.791 Y134.246 E12.47391
G1 X47.131 Y133.892 E12.48346
G1 X46.812 Y133.698 E12.48823
G1 X46.134 Y133.189 E12.49905
G1 X45.718 Y132.829 E12.50606
G1 X45.360 Y132.459 E12.51263
G1 X44.926 Y131.935 E12.52130
G1 X44.674 Y131.568 E12.52698
G1 X44.322 Y130.977 E12.53577
G1 X44.130 Y130.617 E12.54096
G1 X43.844 Y129.954 E12.55017
G1 X43.661 Y129.444 E12.55709
G1 X43.453 Y128.748 E12.56635
G1 X43.295 Y128.015 E12.57592
G1 X43.155 Y127.161 E12.58695
G1 X43.043 Y125.863 E12.60357
G1 X40.031 Y66.306 E13.36421
G1 X40.095 Y65.424 E13.37549
G1 X40.304 Y64.373 E13.38917
G1 X40.526 Y63.658 E13.39871
G1 X47.996 Y46.247 E13.64037
G1 X49.330 Y43.566 E13.67857
G1 X50.419 Y41.627 E13.70693
G1 X50.728 Y41.099 E13.71473
G1 X51.803 Y39.387 E13.74052
G1 X52.905 Y37.761 E13.76558
M204 S2000
G1 X53.189 Y37.871 F10500.000
M204 S500
G1 X53.887 Y36.893 E13.78090 F1080.000
G1 X54.889 Y35.564 E13.80213
G1 X67.911 Y18.661 E14.07430
G1 X68.691 Y17.932 E14.08792
G1 X69.583 Y17.336 E14.10160
G1 X70.771 Y16.844 E14.11800
G1 X71.823 Y16.635 E14.13169
G1 X73.109 Y16.635 E14.14809
G1 X74.244 Y16.862 E14.16285 F1080.000
G1 X82.442 Y18.713 E14.27005
G1 X83.126 Y18.949 E14.27928
G1 X99.311 Y26.607 E14.50767
G1 X99.732 Y26.846 E14.51384
G1 X100.625 Y27.443 E14.52755
G1 X101.535 Y28.352 E14.54395
G1 X102.131 Y29.245 E14.55765
G1 X102.542 Y30.110 E14.56987
G1 X113.323 Y65.274 E15.03901
G1 X113.405 Y65.597 E15.04326
G1 X113.614 Y66.648 E15.05692
G1 X113.673 Y67.451 E15.06719
G1 X110.831 Y125.773 E15.81198
G1 X110.756 Y126.764 E15.82467
G1 X110.680 Y127.378 E15.83256
G1 X110.579 Y127.964 E15.84014
G1 X110.405 Y128.751 E15.85043
G1 X110.221 Y129.357 E15.85850
G1 X110.047 Y129.844 E15.86509
G1 X109.773 Y130.481 E15.87394
G1 X109.585 Y130.833 E15.87903
G1 X109.238 Y131.416 E15.88769
G1 X109.006 Y131.753 E15.89290
G1 X108.375 Y132.487 E15.90525
G1 X107.972 Y132.857 E15.91223
G1 X107.463 Y133.258 E15.92049
G1 X106.891 Y133.634 E15.92923
G1 X106.241 Y133.982 E15.93864
G1 X105.442 Y134.319 E15.94969
G1 X104.672 Y134.583 E15.96007
G1 X103.434 Y134.940 E15.97651
G1 X102.133 Y135.260 E15.99359
G1 X100.889 Y135.487 E16.00973
G1 X100.423 Y135.545 E16.01572
G1 X99.320 Y135.625 E16.02983
G1 X54.845 Y135.625 E16.59711
G1 X53.449 Y135.512 E16.61498
G1 X51.901 Y135.231 E16.63505
G1 X50.689 Y134.929 E16.65098
G1 X49.409 Y134.557 E16.66798
G1 X48.723 Y134.319 E16.67725
G1 X47.924 Y133.982 E16.68831
G1 X47.274 Y133.634 E16.69771
G1 X46.971 Y133.448 E16.70225
G1 X46.316 Y132.956 E16.71270
G1 X45.920 Y132.614 E16.71937
G1 X45.585 Y132.267 E16.72552
G1 X45.159 Y131.753 E16.73404
G1 X44.927 Y131.416 E16.73925
G1 X44.580 Y130.833 E16.74791
G1 X44.392 Y130.481 E16.75300
G1 X44.118 Y129.844 E16.76185
G1 X43.944 Y129.357 E16.76844
G1 X43.738 Y128.670 E16.77759
G1 X43.586 Y127.964 E16.78681
G1 X43.447 Y127.119 E16.79773
G1 X43.338 Y125.843 E16.81407
G1 X40.326 Y66.292 E17.57463
G1 X40.385 Y65.482 E17.58498
G1 X40.594 Y64.430 E17.59866
G1 X40.798 Y63.775 E17.60742
G1 X48.261 Y46.379 E17.84887
G1 X49.590 Y43.706 E17.88694
G1 X50.675 Y41.776 E17.91518
G1 X50.979 Y41.256 E17.92287
G1 X52.053 Y39.545 E17.94863
G1 X53.146 Y37.932 E17.97348
M204 S2000
G1 E16.97348 F600.00000
G92 E0
G1 Z0.500 F10500.000
G1 X76.282 Y124.869 F10500.000
G1 Z0.300 F10500.000
G1 E1.00000 F600.00000
M204 S500
G1 X77.545 Y124.617 E1.01643 F1080.000
G1 X77.749 Y124.617 E1.01902
G1 X78.192 Y124.706 E1.02479
G1 X79.012 Y124.869 E1.03545 F1080.000
G1 X79.200 Y124.947 E1.03805
G1 X80.271 Y125.662 E1.05448
G1 X80.415 Y125.806 E1.05708
G1 X81.130 Y126.877 E1.07350
G1 X81.208 Y127.065 E1.07610
G1 X81.460 Y128.328 E1.09253
G1 X81.460 Y128.532 E1.09513
G1 X81.208 Y129.795 E1.11155
G1 X81.130 Y129.983 E1.11415
G1 X80.415 Y131.054 E1.13058
G1 X80.271 Y131.198 E1.13318
G1 X79.200 Y131.913 E1.14960
G1 X79.012 Y131.991 E1.15220
G1 X77.749 Y132.243 E1.16863
G1 X77.545 Y132.243 E1.17123
G1 X76.241 Y131.974 E1.18821
G1 X76.189 Y131.977 E1.18888
G1 X76.106 Y131.922 E1.19015
G1 X75.023 Y131.198 E1.20676
G1 X74.879 Y131.054 E1.20936
G1 X74.163 Y129.983 E1.22578
G1 X74.085 Y129.795 E1.22838
G1 X73.834 Y128.532 E1.24481
G1 X73.834 Y128.328 E1.24741
G1 X74.085 Y127.065 E1.26383
G1 X74.163 Y126.877 E1.26643
G1 X74.879 Y125.806 E1.28286
G1 X75.023 Y125.662 E1.28546
G1 X76.094 Y124.947 E1.30188
G1 X76.213 Y124.897 E1.30352
M204 S2000
G1 X76.368 Y125.153 F10500.000
M204 S500
G1 X77.574 Y124.913 E1.31921 F1080.000
G1 X77.720 Y124.913 E1.32106
G1 X78.926 Y125.153 E1.33675 F1080.000
G1 X79.060 Y125.209 E1.33860
G1 X80.082 Y125.892 E1.35429
G1 X80.185 Y125.995 E1.35614
G1 X80.868 Y127.017 E1.37183
G1 X80.924 Y127.151 E1.37368
G1 X81.164 Y128.357 E1.38936
G1 X81.164 Y128.503 E1.39122
G1 X80.924 Y129.709 E1.40690
G1 X80.868 Y129.843 E1.40876
G1 X80.185 Y130.866 E1.42444
G1 X80.082 Y130.968 E1.42630
G1 X79.060 Y131.652 E1.44198
G1 X78.926 Y131.707 E1.44384
G1 X77.720 Y131.947 E1.45952
G1 X77.574 Y131.947 E1.46138
G1 X76.368 Y131.707 E1.47706
G1 X76.234 Y131.652 E1.47892
G1 X75.211 Y130.968 E1.49460
G1 X75.109 Y130.866 E1.49646
G1 X74.425 Y129.843 E1.51214
G1 X74.370 Y129.709 E1.51400
G1 X74.130 Y128.503 E1.52968
G1 X74.130 Y128.357 E1.53154
G1 X74.370 Y127.151 E1.54722
G1 X74.425 Y127.017 E1.54908
G1 X75.109 Y125.995 E1.56476
G1 X75.211 Y125.892 E1.56662
G1 X76.234 Y125.209 E1.58230
G1 X76.299 Y125.182 E1.58320
M204 S2000
G1 X76.454 Y125.437 F10500.000
M204 S500
G1 X77.603 Y125.209 E1.59814 F1080.000
G1 X77.691 Y125.209 E1.59925
G1 X78.077 Y125.285 E1.60427
G1 X78.839 Y125.437 E1.61419 F1080.000
G1 X78.920 Y125.471 E1.61531
G1 X79.894 Y126.121 E1.63025
G1 X79.956 Y126.183 E1.63136
G1 X80.606 Y127.157 E1.64630
G1 X80.640 Y127.238 E1.64742
G1 X80.868 Y128.386 E1.66235
G1 X80.868 Y128.474 E1.66347
G1 X80.640 Y129.622 E1.67841
G1 X80.606 Y129.703 E1.67952
G1 X79.956 Y130.677 E1.69446
G1 X79.894 Y130.739 E1.69558
G1 X78.920 Y131.390 E1.71052
G1 X78.839 Y131.423 E1.71163
G1 X77.691 Y131.651 E1.72657
G1 X77.603 Y131.651 E1.72768
G1 X76.454 Y131.423 E1.74262
G1 X76.374 Y131.390 E1.74374
G1 X75.400 Y130.739 E1.75868
G1 X75.338 Y130.677 E1.75979
G1 X74.687 Y129.703 E1.77473
G1 X74.654 Y129.622 E1.77585
G1 X74.426 Y128.474 E1.79079
G1 X74.426 Y128.386 E1.79190
G1 X74.654 Y127.238 E1.80684
G1 X74.687 Y127.157 E1.80795
G1 X75.338 Y126.183 E1.82289
G1 X75.400 Y126.121 E1.82401
G1 X76.385 Y125.466 E1.83910
M204 S2000
G1 X76.541 Y125.721 F10500.000
M204 S500
G1 X77.661 Y125.504 E1.85366 F1080.000
G1 X78.753 Y125.721 E1.86786 F1080.000
G1 X79.705 Y126.351 E1.88242
G1 X80.344 Y127.297 E1.89698
G1 X80.573 Y128.416 E1.91155
G1 X80.356 Y129.536 E1.92611
G1 X79.726 Y130.489 E1.94067
G1 X78.753 Y131.139 E1.95559
G1 X77.661 Y131.356 E1.96979
G1 X76.541 Y131.139 E1.98435
G1 X75.588 Y130.509 E1.99891
G1 X74.949 Y129.563 E2.01348
G1 X74.721 Y128.445 E2.02804
G1 X74.938 Y127.324 E2.04260
